castmagic.svg

<svg width="149" height="32" viewBox="0 0 149 32" fill="none" xmlns="http://www.w3.org/2000/svg">
<g id="6592b77218147d2fdff010a3_Logo 1">
<g id="Clip path group">
<mask id="mask0_4893_4398" style="mask-type:luminance" maskUnits="userSpaceOnUse" x="0" y="3" width="25" height="26">
<g id="clip0_122_37">
<path id="Vector" d="M24.9305 3.69971H0.330078V28.3002H24.9305V3.69971Z" fill="white"/>
</g>
</mask>
<g mask="url(#mask0_4893_4398)">
<g id="Group">
<path id="Vector_2" d="M5.5874 11.2383L18.582 11.2383V7.66725L5.5874 7.66725V11.2383Z" fill="#F2F2F2"/>
<path id="Vector_3" d="M7.37305 20.3645L7.37305 7.66748H4.298L4.298 20.3645H7.37305Z" fill="#F2F2F2"/>
<g id="Clip path group_2">
<mask id="mask1_4893_4398" style="mask-type:luminance" maskUnits="userSpaceOnUse" x="0" y="3" width="50" height="50">
<g id="clip1_122_37">
<path id="Vector_4" d="M49.53 28.3002C49.53 14.7137 38.516 3.69971 24.9296 3.69971C11.3431 3.69971 0.329102 14.7137 0.329102 28.3002V28.3994C0.329102 41.9858 11.3431 52.9998 24.9296 52.9998C38.516 52.9998 49.53 41.9858 49.53 28.3994V28.3002Z" fill="white"/>
</g>
</mask>
<g mask="url(#mask1_4893_4398)">
<g id="Group_2">
<path id="Vector_5" d="M49.53 28.3002C49.53 14.7137 38.516 3.69971 24.9296 3.69971C11.3431 3.69971 0.329102 14.7137 0.329102 28.3002V28.3994C0.329102 41.9858 11.3431 52.9998 24.9296 52.9998C38.516 52.9998 49.53 41.9858 49.53 28.3994V28.3002Z" fill="#0D0B08"/>
<path id="Vector_6" d="M25.3046 10.7427H9.86719V14.7105H25.3046V10.7427Z" fill="#F2F2F2"/>
<path id="Vector_7" d="M11.6377 21.2574V10.7427H7.66989V21.2574H11.6377Z" fill="#F2F2F2"/>
<path id="Vector_8" d="M25.0288 3.69971H0.329102V7.66751H25.0288V3.69971Z" fill="#F2F2F2"/>
<path id="Vector_9" d="M24.9296 24.332H0.329102V28.2998H24.9296V24.332Z" fill="#F2F2F2"/>
<path id="Vector_10" d="M0.329102 3.50103L0.329102 28.2007H4.29691L4.29691 3.50103H0.329102Z" fill="#F2F2F2"/>
<path id="Vector_11" d="M25.3046 17.2896H9.86719V21.2574H25.3046V17.2896Z" fill="#F2F2F2"/>
</g>
</g>
</g>
</g>
</g>
</g>
<path id="Vector_12" d="M40.5547 24.2915C38.8378 24.2915 37.3638 23.9271 36.1328 23.1982C34.9017 22.4531 33.9542 21.4246 33.2901 20.1126C32.6259 18.7843 32.2939 17.2536 32.2939 15.5204C32.2939 13.7873 32.6259 12.2566 33.2901 10.9284C33.9542 9.60013 34.9017 8.56348 36.1328 7.81837C37.3638 7.07327 38.8378 6.70072 40.5547 6.70072C42.5957 6.70072 44.2641 7.21095 45.5599 8.23142C46.8719 9.23568 47.6899 10.653 48.0138 12.4833H44.588C44.3775 11.5601 43.9239 10.8393 43.2274 10.3209C42.5471 9.7864 41.64 9.51915 40.5062 9.51915C38.935 9.51915 37.704 10.0537 36.8131 11.1227C35.9222 12.1918 35.4768 13.6577 35.4768 15.5204C35.4768 17.3832 35.9222 18.8491 36.8131 19.9182C37.704 20.971 38.935 21.4975 40.5062 21.4975C41.64 21.4975 42.5471 21.2545 43.2274 20.7686C43.9239 20.2664 44.3775 19.5779 44.588 18.7033H48.0138C47.6899 20.4527 46.8719 21.8214 45.5599 22.8095C44.2641 23.7975 42.5957 24.2915 40.5547 24.2915ZM53.6338 24.2915C52.5971 24.2915 51.7467 24.1296 51.0826 23.8056C50.4185 23.4655 49.9246 23.02 49.6006 22.4692C49.2766 21.9186 49.1146 21.3112 49.1146 20.6471C49.1146 19.5294 49.552 18.6223 50.4266 17.9258C51.3014 17.2292 52.6134 16.881 54.3627 16.881H57.4241V16.5895C57.4241 15.7634 57.1893 15.156 56.7195 14.7672C56.2498 14.3785 55.6666 14.1841 54.9702 14.1841C54.3384 14.1841 53.7877 14.338 53.3179 14.6457C52.8482 14.9374 52.5567 15.3746 52.4433 15.9578H49.4062C49.4872 15.0831 49.7787 14.3218 50.2809 13.6739C50.7992 13.0259 51.4633 12.532 52.2733 12.1918C53.0831 11.8354 53.9902 11.6572 54.9944 11.6572C56.7114 11.6572 58.0639 12.0865 59.052 12.945C60.0401 13.8034 60.5341 15.0183 60.5341 16.5895V24H57.8857L57.5942 22.0562C57.2378 22.7042 56.7357 23.2387 56.0878 23.6599C55.4561 24.081 54.6381 24.2915 53.6338 24.2915ZM54.3384 21.8619C55.2293 21.8619 55.9177 21.5703 56.4037 20.9872C56.9058 20.4041 57.2216 19.6833 57.3512 18.8248H54.7029C53.8768 18.8248 53.2856 18.9786 52.9293 19.2864C52.5729 19.5779 52.3947 19.9424 52.3947 20.3798C52.3947 20.8495 52.5729 21.2139 52.9293 21.4731C53.2856 21.7323 53.7553 21.8619 54.3384 21.8619ZM67.2679 24.2915C66.1989 24.2915 65.2593 24.1215 64.4495 23.7814C63.6395 23.425 62.9917 22.9391 62.5057 22.3235C62.0198 21.708 61.7282 20.9953 61.6311 20.1854H64.7654C64.8625 20.6552 65.1217 21.0601 65.5429 21.4002C65.9801 21.7242 66.539 21.8862 67.2193 21.8862C67.8997 21.8862 68.3936 21.7484 68.7014 21.4731C69.0254 21.1978 69.1873 20.8819 69.1873 20.5256C69.1873 20.0072 68.9606 19.659 68.5071 19.4808C68.0535 19.2864 67.4218 19.1001 66.6119 18.9219C66.0936 18.8086 65.5671 18.671 65.0326 18.5089C64.4981 18.347 64.004 18.1444 63.5505 17.9015C63.1131 17.6424 62.7568 17.3184 62.4815 16.9296C62.2061 16.5247 62.0683 16.0306 62.0683 15.4475C62.0683 14.3785 62.4895 13.4795 63.3318 12.7506C64.1903 12.0217 65.3889 11.6572 66.9278 11.6572C68.3531 11.6572 69.487 11.9894 70.3293 12.6535C71.1878 13.3175 71.6979 14.2327 71.86 15.399H68.9201C68.7419 14.5081 68.0697 14.0626 66.9034 14.0626C66.3203 14.0626 65.8667 14.176 65.5429 14.4027C65.2351 14.6296 65.0811 14.913 65.0811 15.2531C65.0811 15.6095 65.3161 15.893 65.7858 16.1035C66.2555 16.3142 66.8792 16.5084 67.6567 16.6867C68.499 16.881 69.2683 17.0998 69.9648 17.3427C70.6775 17.5695 71.2445 17.9177 71.6656 18.3874C72.0867 18.841 72.2974 19.497 72.2974 20.3555C72.3135 21.1006 72.1191 21.7728 71.7142 22.3721C71.3093 22.9714 70.7262 23.4411 69.9648 23.7814C69.2035 24.1215 68.3046 24.2915 67.2679 24.2915ZM78.8274 24C77.564 24 76.5517 23.6922 75.7904 23.0767C75.029 22.4612 74.6485 21.3679 74.6485 19.7967V14.5486H72.5832V11.9488H74.6485L75.0129 8.71735H77.7584V11.9488H81.0142V14.5486H77.7584V19.8209C77.7584 20.4041 77.8799 20.809 78.1229 21.0358C78.3821 21.2464 78.8193 21.3516 79.4349 21.3516H80.9413V24H78.8274ZM82.4695 24V11.9488H85.215L85.4823 13.5767C85.871 12.9936 86.3813 12.532 87.0129 12.1918C87.6609 11.8354 88.4059 11.6572 89.2482 11.6572C91.111 11.6572 92.4311 12.378 93.2087 13.8196C93.6459 13.1555 94.2291 12.6291 94.9579 12.2403C95.7031 11.8517 96.513 11.6572 97.3877 11.6572C98.9589 11.6572 100.166 12.127 101.008 13.0665C101.85 14.0059 102.271 15.3827 102.271 17.1969V24H99.1614V17.4884C99.1614 16.4518 98.9589 15.6582 98.5539 15.1074C98.1651 14.5567 97.5577 14.2812 96.7317 14.2812C95.8894 14.2812 95.209 14.589 94.6907 15.2046C94.1886 15.8201 93.9375 16.6786 93.9375 17.78V24H90.8275V17.4884C90.8275 16.4518 90.625 15.6582 90.2201 15.1074C89.8152 14.5567 89.1915 14.2812 88.3493 14.2812C87.5232 14.2812 86.851 14.589 86.3327 15.2046C85.8305 15.8201 85.5794 16.6786 85.5794 17.78V24H82.4695ZM108.164 24.2915C107.127 24.2915 106.277 24.1296 105.613 23.8056C104.949 23.4655 104.455 23.02 104.131 22.4692C103.807 21.9186 103.645 21.3112 103.645 20.6471C103.645 19.5294 104.082 18.6223 104.957 17.9258C105.831 17.2292 107.143 16.881 108.893 16.881H111.954V16.5895C111.954 15.7634 111.719 15.156 111.249 14.7672C110.78 14.3785 110.197 14.1841 109.5 14.1841C108.868 14.1841 108.318 14.338 107.848 14.6457C107.378 14.9374 107.087 15.3746 106.973 15.9578H103.936C104.017 15.0831 104.309 14.3218 104.811 13.6739C105.329 13.0259 105.993 12.532 106.803 12.1918C107.613 11.8354 108.52 11.6572 109.524 11.6572C111.241 11.6572 112.594 12.0865 113.582 12.945C114.57 13.8034 115.064 15.0183 115.064 16.5895V24H112.416L112.124 22.0562C111.768 22.7042 111.266 23.2387 110.618 23.6599C109.986 24.081 109.168 24.2915 108.164 24.2915ZM108.868 21.8619C109.759 21.8619 110.448 21.5703 110.934 20.9872C111.436 20.4041 111.752 19.6833 111.881 18.8248H109.233C108.407 18.8248 107.816 18.9786 107.459 19.2864C107.103 19.5779 106.925 19.9424 106.925 20.3798C106.925 20.8495 107.103 21.2139 107.459 21.4731C107.816 21.7323 108.285 21.8619 108.868 21.8619ZM121.92 20.4041C121.337 20.4041 120.794 20.3393 120.291 20.2097L119.393 21.1087C119.668 21.2545 120.041 21.376 120.511 21.4731C120.98 21.5703 121.741 21.6675 122.794 21.7647C124.397 21.9105 125.564 22.2911 126.292 22.9066C127.021 23.5222 127.386 24.3726 127.386 25.4578C127.386 26.1705 127.192 26.8427 126.803 27.4744C126.415 28.1224 125.815 28.6407 125.005 29.0294C124.195 29.4344 123.159 29.6368 121.896 29.6368C120.178 29.6368 118.793 29.3129 117.74 28.6649C116.688 28.0332 116.161 27.0776 116.161 25.7979C116.161 24.7127 116.688 23.7732 117.74 22.9795C117.417 22.8337 117.133 22.6799 116.89 22.5179C116.664 22.3559 116.46 22.1858 116.283 22.0076V21.4488L118.396 19.2136C117.457 18.3874 116.987 17.3265 116.987 16.0306C116.987 15.2208 117.181 14.4838 117.57 13.8196C117.976 13.1555 118.543 12.6291 119.271 12.2403C120 11.8517 120.883 11.6572 121.92 11.6572C122.6 11.6572 123.232 11.7544 123.815 11.9488H128.383V13.844L126.317 13.9897C126.641 14.6052 126.803 15.2856 126.803 16.0306C126.803 16.8406 126.609 17.5776 126.22 18.2417C125.832 18.9058 125.265 19.4322 124.52 19.8209C123.791 20.2097 122.923 20.4041 121.92 20.4041ZM121.92 18.023C122.552 18.023 123.069 17.8529 123.474 17.5128C123.896 17.1726 124.106 16.6867 124.106 16.055C124.106 15.4232 123.896 14.9374 123.474 14.5971C123.069 14.257 122.552 14.087 121.92 14.087C121.256 14.087 120.721 14.257 120.316 14.5971C119.911 14.9374 119.708 15.4232 119.708 16.055C119.708 16.6867 119.911 17.1726 120.316 17.5128C120.721 17.8529 121.256 18.023 121.92 18.023ZM119.004 25.482C119.004 26.0814 119.28 26.5268 119.829 26.8184C120.396 27.1262 121.085 27.2801 121.896 27.2801C122.673 27.2801 123.305 27.118 123.791 26.7942C124.276 26.4864 124.52 26.0652 124.52 25.5307C124.52 25.0934 124.357 24.7289 124.033 24.4374C123.725 24.1458 123.101 23.9676 122.162 23.9028C121.498 23.8542 120.883 23.7814 120.316 23.6841C119.847 23.9433 119.506 24.2267 119.296 24.5345C119.101 24.8423 119.004 25.1582 119.004 25.482ZM131.112 10.078C130.545 10.078 130.075 9.90789 129.703 9.56774C129.346 9.22758 129.168 8.79835 129.168 8.28002C129.168 7.76168 129.346 7.34054 129.703 7.01659C130.075 6.67643 130.545 6.50635 131.112 6.50635C131.679 6.50635 132.14 6.67643 132.497 7.01659C132.869 7.34054 133.056 7.76168 133.056 8.28002C133.056 8.79835 132.869 9.22758 132.497 9.56774C132.14 9.90789 131.679 10.078 131.112 10.078ZM129.556 24V11.9488H132.667V24H129.556ZM140.602 24.2915C139.371 24.2915 138.285 24.0243 137.346 23.4897C136.407 22.9552 135.661 22.2102 135.111 21.2545C134.577 20.2987 134.309 19.2055 134.309 17.9744C134.309 16.7434 134.577 15.65 135.111 14.6944C135.661 13.7386 136.407 12.9936 137.346 12.4591C138.285 11.9246 139.371 11.6572 140.602 11.6572C142.141 11.6572 143.436 12.0622 144.49 12.8721C145.543 13.6658 146.215 14.7672 146.506 16.1764H143.226C143.064 15.5934 142.74 15.1398 142.255 14.8159C141.785 14.4756 141.226 14.3056 140.578 14.3056C139.72 14.3056 138.991 14.6296 138.391 15.2775C137.792 15.9254 137.492 16.8243 137.492 17.9744C137.492 19.1244 137.792 20.0234 138.391 20.6713C138.991 21.3193 139.72 21.6432 140.578 21.6432C141.226 21.6432 141.785 21.4812 142.255 21.1572C142.74 20.8334 143.064 20.3716 143.226 19.7723H146.506C146.215 21.133 145.543 22.2263 144.49 23.0524C143.436 23.8785 142.141 24.2915 140.602 24.2915Z" fill="#F2F2F2"/>
</g>
</svg>

<svg xmlns="http://www.w3.org/2000/svg" width="149" height="32" fill="none"><mask id="a" width="25" height="26" x="0" y="3" maskUnits="userSpaceOnUse" style="mask-type:luminance"><path fill="#fff" d="M24.93 3.7H.33v24.6h24.6z"/></mask><g mask="url(#a)"><path fill="#F2F2F2" d="M5.587 11.238h12.995v-3.57H5.587z"/><path fill="#F2F2F2" d="M7.373 20.365V7.666H4.298v12.698z"/><mask id="b" width="50" height="50" x="0" y="3" maskUnits="userSpaceOnUse" style="mask-type:luminance"><path fill="#fff" d="M49.53 28.3c0-13.586-11.014-24.6-24.6-24.6S.33 14.714.33 28.3v.1C.33 41.985 11.342 53 24.93 53c13.586 0 24.6-11.014 24.6-24.6z"/></mask><g mask="url(#b)"><path fill="#0D0B08" d="M49.53 28.3c0-13.586-11.014-24.6-24.6-24.6S.33 14.714.33 28.3v.1C.33 41.985 11.342 53 24.93 53c13.586 0 24.6-11.014 24.6-24.6z"/><path fill="#F2F2F2" d="M25.305 10.743H9.867v3.967h15.438z"/><path fill="#F2F2F2" d="M11.638 21.257V10.743H7.67v10.514zM25.029 3.7H.329v3.968h24.7zM24.93 24.332H.33V28.3h24.6z"/><path fill="#F2F2F2" d="M.33 3.501v24.7h3.967V3.5zM25.305 17.29H9.867v3.967h15.438z"/></g></g><path fill="#F2F2F2" d="M40.555 24.292q-2.576 0-4.422-1.094a7.47 7.47 0 0 1-2.843-3.085q-.996-1.993-.996-4.593t.996-4.592 2.843-3.11 4.422-1.117q3.061 0 5.005 1.53 1.968 1.507 2.454 4.252h-3.426q-.316-1.385-1.36-2.162-1.02-.802-2.722-.802-2.357 0-3.693 1.604t-1.336 4.397 1.336 4.398q1.336 1.58 3.693 1.58 1.701 0 2.721-.73 1.045-.753 1.361-2.065h3.426q-.486 2.624-2.454 4.107-1.944 1.482-5.005 1.482m13.079 0q-1.555 0-2.551-.486-.996-.51-1.482-1.337a3.53 3.53 0 0 1-.486-1.822q0-1.677 1.312-2.721 1.311-1.045 3.936-1.045h3.061v-.291q0-1.24-.705-1.823-.704-.583-1.749-.583-.947 0-1.652.462-.705.437-.875 1.312h-3.037q.122-1.312.875-2.284a4.96 4.96 0 0 1 1.992-1.482q1.215-.535 2.721-.535 2.576 0 4.058 1.288 1.482 1.287 1.482 3.645V24h-2.648l-.292-1.944a4.46 4.46 0 0 1-1.506 1.604q-.948.631-2.454.631m.704-2.43q1.337 0 2.066-.875.753-.875.947-2.162h-2.648q-1.239 0-1.774.461-.534.438-.534 1.094 0 .705.534 1.093.535.39 1.41.389m12.93 2.43q-1.605 0-2.818-.51-1.215-.535-1.944-1.459a4.2 4.2 0 0 1-.875-2.138h3.134q.146.705.778 1.215.656.486 1.676.486t1.482-.413q.486-.413.486-.947 0-.778-.68-1.045-.68-.291-1.895-.56a21 21 0 0 1-1.58-.412 8 8 0 0 1-1.481-.608 3.4 3.4 0 0 1-1.07-.971q-.413-.608-.413-1.482 0-1.605 1.264-2.697 1.287-1.094 3.596-1.094 2.138 0 3.401.996 1.288.997 1.531 2.746h-2.94q-.267-1.336-2.017-1.336-.874 0-1.36.34-.462.34-.462.85 0 .535.705.85.705.316 1.87.584 1.264.291 2.309.656 1.069.34 1.7 1.044.633.681.632 1.968a3.4 3.4 0 0 1-.583 2.017q-.607.9-1.75 1.41-1.141.51-2.696.51M78.828 24q-1.895 0-3.038-.923-1.142-.925-1.142-3.28v-5.248h-2.065v-2.6h2.066l.364-3.232h2.745v3.232h3.256v2.6h-3.256v5.272q0 .874.365 1.215.389.316 1.312.316h1.506V24zm3.641 0V11.949h2.746l.267 1.628a4.2 4.2 0 0 1 1.53-1.385q.973-.535 2.236-.535 2.794 0 3.96 2.163a4.7 4.7 0 0 1 1.75-1.58 5.2 5.2 0 0 1 2.43-.583q2.356 0 3.62 1.41 1.263 1.409 1.263 4.13V24h-3.11v-6.512q0-1.555-.607-2.38-.583-.827-1.822-.827-1.264 0-2.041.924-.753.923-.754 2.575V24h-3.11v-6.512q0-1.555-.607-2.38-.607-.827-1.87-.827-1.24 0-2.017.924-.753.923-.754 2.575V24zm25.695.291q-1.555 0-2.551-.485-.996-.51-1.482-1.337a3.53 3.53 0 0 1-.486-1.822q0-1.677 1.312-2.721 1.311-1.045 3.936-1.045h3.061v-.291q0-1.24-.705-1.823-.703-.583-1.749-.583-.948 0-1.652.462-.704.437-.875 1.312h-3.037q.122-1.312.875-2.284a4.96 4.96 0 0 1 1.992-1.482q1.215-.535 2.721-.535 2.576 0 4.058 1.288 1.482 1.287 1.482 3.645V24h-2.648l-.292-1.944a4.45 4.45 0 0 1-1.506 1.604q-.948.631-2.454.631m.704-2.43q1.337.001 2.066-.874.753-.875.947-2.162h-2.648q-1.239 0-1.774.461-.534.438-.534 1.094 0 .705.534 1.093.535.39 1.409.389m13.052-1.457a6.5 6.5 0 0 1-1.629-.194l-.898.899q.413.218 1.118.364.703.146 2.283.292 2.405.218 3.498 1.142t1.094 2.55q0 1.07-.583 2.017-.582.973-1.798 1.555-1.215.608-3.109.608-2.577 0-4.156-.972-1.579-.948-1.579-2.867 0-1.628 1.579-2.818a6 6 0 0 1-.85-.462 5 5 0 0 1-.607-.51v-.56l2.113-2.234q-1.409-1.24-1.409-3.183 0-1.215.583-2.211a4.35 4.35 0 0 1 1.701-1.58q1.093-.582 2.649-.583 1.02 0 1.895.292h4.568v1.895l-2.066.146q.486.923.486 2.04 0 1.215-.583 2.212-.582.996-1.7 1.579-1.094.583-2.6.583m0-2.381q.947 0 1.554-.51.633-.51.632-1.458 0-.948-.632-1.458-.607-.51-1.554-.51-.996 0-1.604.51t-.608 1.458.608 1.458 1.604.51m-2.916 7.459q0 .9.825 1.336.85.462 2.067.462 1.166 0 1.895-.486.728-.462.729-1.263a1.41 1.41 0 0 0-.487-1.094q-.462-.437-1.871-.534a19 19 0 0 1-1.846-.219q-.704.39-1.02.85a1.75 1.75 0 0 0-.292.948m12.108-15.404q-.85 0-1.409-.51-.535-.51-.535-1.288t.535-1.263q.558-.51 1.409-.51.85 0 1.385.51.558.486.559 1.263 0 .777-.559 1.288-.535.51-1.385.51M129.556 24V11.949h3.111V24zm11.046.291q-1.847 0-3.256-.801a5.9 5.9 0 0 1-2.235-2.235q-.801-1.434-.802-3.28 0-1.848.802-3.28a5.9 5.9 0 0 1 2.235-2.236q1.409-.802 3.256-.802 2.308 0 3.888 1.215 1.58 1.19 2.016 3.304h-3.28a2.33 2.33 0 0 0-.971-1.36q-.705-.51-1.677-.51-1.287 0-2.187.972-.899.97-.899 2.696t.899 2.697q.9.972 2.187.972.972 0 1.677-.486.728-.485.971-1.385h3.28q-.436 2.041-2.016 3.28-1.58 1.24-3.888 1.24"/></svg>
